packages/ui/public/icons/profile-bell-icon.svg

<svg width="22" height="22" viewBox="0 0 22 22" fill="none" xmlns="http://www.w3.org/2000/svg">
<path opacity="0.4" d="M8.06047 19.9999C8.76559 20.6222 9.69189 20.9999 10.7063 20.9999C11.7208 20.9999 12.647 20.6222 13.3521 19.9999M1.00019 4.81969C0.985844 3.36835 1.76832 2.01305 3.0324 1.2998M20.4084 4.8197C20.4228 3.36835 19.6403 2.01305 18.3762 1.2998" stroke="#EDEDED" stroke-width="2" stroke-linecap="round" stroke-linejoin="round"/>
<path d="M16.7058 7C16.7058 5.4087 16.0737 3.88258 14.9485 2.75736C13.8232 1.63214 12.2971 1 10.7058 1C9.11451 1 7.58841 1.63214 6.46319 2.75736C5.33797 3.88258 4.70583 5.4087 4.70583 7C4.70583 10.0902 3.9263 12.206 3.05549 13.6054C2.32096 14.7859 1.95369 15.3761 1.96715 15.5408C1.98207 15.7231 2.02069 15.7926 2.1676 15.9016C2.30029 16 2.89842 16 4.09468 16H17.317C18.5132 16 19.1114 16 19.244 15.9016C19.391 15.7926 19.4296 15.7231 19.4445 15.5408C19.458 15.3761 19.0907 14.7859 18.3562 13.6054C17.4853 12.206 16.7058 10.0902 16.7058 7Z" stroke="#EDEDED" stroke-width="2" stroke-linecap="round" stroke-linejoin="round"/>
</svg>

<svg width="22" height="22" fill="none" xmlns="http://www.w3.org/2000/svg"><path opacity=".4" d="M8.06 20c.706.622 1.632 1 2.646 1 1.015 0 1.941-.378 2.646-1M1 4.82A4.007 4.007 0 0 1 3.032 1.3m17.376 3.52a4.007 4.007 0 0 0-2.032-3.52" stroke="#EDEDED" stroke-width="2" stroke-linecap="round" stroke-linejoin="round"/><path d="M16.706 7a6 6 0 1 0-12 0c0 3.09-.78 5.206-1.65 6.605-.735 1.18-1.102 1.771-1.089 1.936.015.182.054.252.2.36C2.3 16 2.899 16 4.096 16h13.222c1.196 0 1.794 0 1.927-.098.147-.11.186-.179.2-.361.014-.165-.353-.755-1.088-1.936-.87-1.399-1.65-3.515-1.65-6.605Z" stroke="#EDEDED" stroke-width="2" stroke-linecap="round" stroke-linejoin="round"/></svg>
